Papirus/24x24/apps/tuxedo-control-center.svg

<svg width="24" height="24" version="1.1" xmlns="http://www.w3.org/2000/svg">
 <rect x="1.9999995" y="2.4999992" width="19.999994" height="19.999994" rx="3.9062458" ry="3.9062458" style="opacity:.2"/>
 <rect x="1.9999995" y="1.9999993" width="19.999994" height="19.999994" rx="3.9062458" ry="3.9062458" style="fill:#4f4f4f"/>
 <path d="m13.5732 3.5001817c-1.6467 0.01169-3.3236 0.62652-4.83852 1.42945-3.46271 1.83524-5.64024 5.4701503-5.73241 9.4718703-0.04874 2.1169 0.69225 4.3472 1.71972 6.0985h2.57959c-1.20523-1.631-2.19951-3.8867-2.14966-6.0524 0.07587-3.293 1.62979-6.1290703 4.47916-7.6392603 1.26552-0.67069 2.64352-1.09095 4.01712-1.09095 1.7193 0 3.3022 0.49538 4.7787 1.52105 0.3787 0.23726 0.8254 0.0663 0.8809 0.04351 0.3183-0.13069 0.6672-0.47401 0.6895-0.82543 0.0222-0.35142-0.0913-0.78049-0.3786-0.97254-2.3265-1.61609-4.6745-1.99353-6.0455-1.9838z" style="opacity:.2"/>
 <path d="m13.5732 3.00018c-1.6467 0.01169-3.3236 0.62652-4.83852 1.42945-3.46271 1.83524-5.64024 5.47015-5.73241 9.47187-0.04874 2.1169 0.69225 4.3472 1.71972 6.0985h2.57959c-1.20523-1.631-2.19951-3.8867-2.14966-6.0524 0.07587-3.293 1.62979-6.12907 4.47916-7.63926 1.26552-0.67069 2.64352-1.09095 4.01712-1.09095 1.7193 0 3.3022 0.49538 4.7787 1.52105 0.3787 0.23726 0.8254 0.0663 0.8809 0.04351 0.3183-0.13069 0.6672-0.47401 0.6895-0.82543 0.0222-0.35142-0.0913-0.78049-0.3786-0.97254-2.3265-1.61609-4.6745-1.99353-6.0455-1.9838z" style="fill:#c2352a"/>
 <path d="m18.102 8.5h-10.102v1h8.3837l-1.9337 3.5118-1.57-2.5117-1.88-2.5e-4 2.55 4.01485-3.57339 5.9853h10.02339v-1h-8.218l2.3217-4.0292 1.7963 3.0292h2l-2.85-4.5069z" style="opacity:.2"/>
 <path d="m18.102 8h-10.102v1h8.3837l-1.9337 3.5118-1.57-2.5117-1.88-2.5e-4 2.55 4.01485-3.57339 5.9853h10.02339v-1h-8.218l2.3217-4.0292 1.7963 3.0292h2l-2.85-4.5069z" style="fill:#ececec"/>
 <path d="M 5.90625 2 C 3.74219 2 2 3.74219 2 5.90625 L 2 6.40625 C 2 4.24219 3.74219 2.5 5.90625 2.5 L 18.0937 2.5 C 20.2578 2.5 22 4.24219 22 6.40625 L 22 5.90625 C 22 3.74219 20.2578 2 18.0937 2 L 5.90625 2 Z" style="fill:#ffffff;opacity:.1"/>
 <path d="m13.572266 3c-1.6467 0.01169-3.322971 0.6267575-4.837891 1.4296875-3.46271 1.83524-5.6402519 5.4709363-5.7324219 9.4726565-0.0034325 0.149082-0.0022722 0.297265 0.0019531 0.447265 0.109994-3.980901 2.2829729-7.592745 5.7304688-9.4199215 1.51492-0.80293 3.191191-1.4179975 4.837891-1.4296875 1.371-0.00973 3.720375 0.368285 6.046875 1.984375 0.192245 0.1285095 0.305494 0.3628908 0.353515 0.609375 0.01327-0.0451871 0.022477-0.0907987 0.025391-0.1367188 0.0222-0.35142-0.091606-0.7806062-0.378906-0.9726562-2.3265-1.61609-4.675875-1.994105-6.046875-1.984375zm-8.416016 11.378906c-6.748e-4 0.022977-0.0033758 0.045338-0.0039062 0.06836-0.0449418 1.952462 0.7589523 3.977666 1.8007812 5.552734h0.3476562c-1.1255517-1.523174-2.0655575-3.590373-2.1445312-5.621094z" style="fill:#ffffff;opacity:.2"/>
</svg>

<svg xmlns="http://www.w3.org/2000/svg" width="24" height="24" version="1.1">
 <rect style="opacity:0.2" width="20" height="20" x="2" y="2.5" rx="4" ry="4"/>
 <rect style="fill:#4f4f4f" width="20" height="20" x="2" y="2" rx="4" ry="4"/>
 <path style="opacity:0.1" d="M 13.573,3.5002 C 11.927,3.5119 10.25,4.1267 8.7347,4.9296 5.272,6.7649 3.0944,10.4 3.0023,14.402 2.9535,16.518 3.6945,18.749 4.722,20.5 H 7.3016 C 6.0964,18.869 5.1021,16.613 5.1519,14.448 5.2278,11.155 6.7817,8.3185 9.6311,6.8083 10.897,6.1377 12.275,5.7174 13.648,5.7174 15.368,5.7174 16.95,6.2128 18.427,7.2384 18.806,7.4757 19.252,7.3047 19.308,7.282 19.626,7.1513 19.975,6.8079 19.997,6.4565 20.019,6.1051 19.906,5.676 19.619,5.484 17.292,3.8679 14.944,3.4905 13.573,3.5002 Z"/>
 <path style="fill:#c2352a" d="M 13.573,3.0002 C 11.927,3.0119 10.25,3.6267 8.7347,4.4296 5.272,6.2649 3.0944,9.8998 3.0023,13.901 2.9535,16.018 3.6945,18.249 4.722,20 H 7.3016 C 6.0964,18.369 5.1021,16.113 5.1519,13.948 5.2278,10.655 6.7817,7.8185 9.6311,6.3083 10.897,5.6377 12.275,5.2174 13.648,5.2174 15.368,5.2174 16.95,5.7128 18.427,6.7384 18.806,6.9757 19.252,6.8047 19.308,6.782 19.626,6.6513 19.975,6.3079 19.997,5.9565 20.019,5.6051 19.906,5.176 19.619,4.984 17.292,3.3679 14.944,2.9905 13.573,3.0002 Z"/>
 <path style="opacity:0.1" d="M 18.102,8.5 H 8 V 9.5 H 16.384 L 14.45,13.012 12.88,10.5 H 11 L 13.55,14.515 9.9766,20.5 H 20 V 19.5 H 11.782 L 14.104,15.471 15.9,18.5 H 17.9 L 15.05,13.993 Z"/>
 <path style="fill:#ececec" d="M 18.102,8 H 8 V 9 H 16.384 L 14.45,12.512 12.88,10 11,9.9999 13.55,14.015 9.9766,20 H 20 V 19 H 11.782 L 14.104,14.971 15.9,18 H 17.9 L 15.05,13.493 Z"/>
 <path style="opacity:0.2;fill:#ffffff" d="M 13.572,3 C 11.926,3.0117 10.249,3.6268 8.7344,4.4297 5.2717,6.2649 3.0941,9.9006 3.002,13.902 2.9985,14.051 2.9997,14.2 3.0039,14.35 3.1139,10.369 5.2869,6.7569 8.7344,4.9297 10.249,4.1268 11.926,3.5117 13.572,3.5 14.943,3.4903 17.293,3.8683 19.619,5.4844 19.811,5.6129 19.925,5.8473 19.973,6.0937 19.986,6.0486 19.995,6.003 19.998,5.957 20.02,5.6056 19.906,5.1764 19.619,4.9844 17.293,3.3683 14.943,2.9903 13.572,3 Z M 5.1562,14.379 C 5.1556,14.402 5.1529,14.424 5.1523,14.447 5.1074,16.4 5.9113,18.425 6.9531,20 H 7.3008 C 6.1752,18.477 5.2352,16.41 5.1562,14.379 Z"/>
 <path style="opacity:0.1;fill:#ffffff" d="M 6 2 C 3.784 2 2 3.784 2 6 L 2 6.5 C 2 4.284 3.784 2.5 6 2.5 L 18 2.5 C 20.216 2.5 22 4.284 22 6.5 L 22 6 C 22 3.784 20.216 2 18 2 L 6 2 z"/>
</svg>
